X:1
T:6 Songs, Op.3
T:Lied
T:6. Lied
T:Johannes Brahms
T:Joseph von Eichendorff
T:6 Songs, Op.3
T:OpenScore (CC0)
T:OpenScore (CC0)
T:OpenScore (CC0)
T:OpenScore (CC0)
C:Johannes Brahms
Z:Joseph von Eichendorff
Z:OpenScore (CC0)
%%score ( 1 2 3 ) { ( 4 7 ) | ( 5 6 ) }
L:1/8
Q:1/4=120
M:9/8
K:A
V:1 treble nm="Singstimme\nVoice"
V:2 treble 
V:3 treble 
V:4 treble nm="Pianoforte"
V:7 treble 
V:5 bass 
V:6 bass 
V:1
"^Poco allegretto" z2 z z2 z!p!!<(! (GA) B!<)! | !>!^B3 c z z!<(! (GA) =B!<)! | %2
w: Lin- * des|Rau- schen in * den|
 !>!^B3 c z z!<(! (c^d) e!<)! | !>!e3- e2 =B!>(! B2 F!>)! | G2 z z2!p! z!<(! (GA) B!<)! | %5
w: Wip- feln, Vög- * lein,|die * ihr fern- ab|fliegt, Bron- * nen|
 (^B3 c) z c (GA) =B | !>!B3"^sostenuto" =c2 z!<(! c2!<)! c | d2 d!>(! !>!=f3- f2 d!>)! | %8
w: von * den stil- * len|Gip- feln, sagt, wo|mei- ne Hei- * mat|
 ^c3 z2 z !>!d2 B | (^A3 B2) B[Q:1/4=110]"^rit. poco" d2 B[Q:1/4=100]"^rit." | %10
w: liegt? sagt, wo|mei- * ne Hei- mat|
!>(! ^A3- A2!>)! z!p![Q:1/4=120]"^a tempo" (B=A) B | (!>!^B3 c) z c!<(! (GA) =B!<)! | %12
w: liegt? * Heut * im|Traum * sah ich * sie|
 !>!^B3 c z z!<(! (c^d) e!<)! | !>!e3- e2 =B!>(! B2 F | G3- G2!>)!!p! z!<(! (GA) B!<)! | %15
w: wie- der, und * von|al- * len Ber- gen|ging * sol- * ches|
 !>!^B3 c z z (GA) =B | !>!B3"^sostenuto" =c2 z!<(! c2 c | d2!<)! d !>!=f3-!>(! f2 d | %18
w: Grü- ssen zu * mir|nie- der, dass ich|an zu wei- * nen|
 ^c3!>)! z2 z d2 B | (^A3 B2) B[Q:1/4=110]"^poco rit." d2 B | %20
w: fing, dass ich|an * zu wei- nen|
[Q:1/4=100]"^rit." _B3- B2 z!p! B2 B || %21
w: fing. * Ach, hier|
[K:F]"^con espressione"[Q:1/4=120]"^a tempo" B3- B2 B A2 ^G | ^G3 A2 z A2 A | B3- B2 B A2 ^G | %24
w: auf * den frem- den|Gip- feln: Men- schen,|Quel- * len, Fels und|
 (^G3 A2) z z2 z | z9 | z2 z z2 z!f! f2 e | f2 c A3 F3 |!>(! G3-!>)! G2 z z2 z | %29
w: Baum, *||Al- les|ist mir wie ein|Traum! *|
 z2 z!p![Q:1/4=110]"^rit."!>(! E3[Q:1/4=100]"^rit." E3!>)! | %30
w: wie ein|
!pp![Q:1/4=90]"^rit."!>(! E6-!>)! E z z || %31
w: Traum! *|
[K:A][Q:1/4=130]"^Poco animato" z2 z z2 z!mf! (G!<(!A) B!<)! | !>!^B3 c z z!<(! (GA) =B!<)! | %33
w: Mun- * tre|Vö- gel in * den|
 ^B3 c z z!<(! (c^d) e!<)! | !>!e3- e2 =B!>(! B2 F!>)! | G2 z z2 z!<(! (GA) B!<)! | %36
w: Wip- feln, ihr * Ge-|sel- * len dort im|Tal, grüsst * mir|
 (!>!^B3 c) z c!<(! (=Bc) d!<)! | !>!^d3 e2 z!<(! ^e2 e!<)! |!f! !>!f6 d3 | !>!c6!>(! B3!>)! | %40
w: von * den frem- * den|Gip- feln mei- ne|Hei- mat|tau- send-|
 A2 z!p![Q:1/4=120]"^T""^dim." !>!E3-[Q:1/4=110]"^T" E2 E | %41
w: mal! tau- * send-|
[Q:1/4=100]"^T" E6-[Q:1/4=90][Q:1/4=80]"^T"!>(! E3- |[Q:1/4=70]"^T" E6-!>)! E!pp! z z |] %43
w: ||
V:2
 x9 | x9 | x9 | x9 | x9 | x9 | x9 | x9 | x9 | x9 | x9 | x9 | x9 | x9 | x9 | x9 | x9 | x9 | x9 | %19
w: |||||||||||||||||||
 x9 | x9 ||[K:F] x9 | x9 | x9 | x9 | x9 | x9 | x9 | x9 | x9 | x9 ||[K:A] x9 | x9 | x9 | x9 | x9 | %36
w: |||||||||||||||||
 x9 | x9 | x9 | x9 | x8 D | C6- C3- | C6- C x2 |] %43
w: |||||mal! _|_ _|
V:3
 x9 | x9 | x9 | x9 | x9 | x9 | x9 | x9 | x9 | x9 | x9 | x9 | x9 | x9 | x9 | x9 | x9 | x9 | x9 | %19
 x9 | x9 ||[K:F] x9 | x9 | x9 | x9 | x9 | x9 | x9 | x9 | x9 | x9 ||[K:A] x9 | x9 | x9 | x9 | x9 | %36
 x9 | x9 | x9 | x9 | x9 | x3"^T" x3 x3 | x9 |] %43
V:4
!p! (E/D/)(E/D/)(E/D/) (E/D/)(E/D/)(E/D/)!<(! (E/D/)(E/D/)(E/D/)!<)! | %1
 (E/D/)(E/D/)(E/D/) (E/C/)(E/C/)(E/C/)!<(! (E/D/)(E/D/)(E/D/)!<)! | %2
 (E/D/)(E/D/)(E/D/) (E/C/)(E/C/)(E/C/)"_cresc." (E/C/)(E/C/)(E/C/) | %3
 (E/B,/)(E/B,/)(E/B,/) (E/B,/)(E/B,/)(E/B,/)!>(! (E/B,/)(E/B,/)(^D/B,/)!>)! | %4
 (E/B,/)(E/B,/)(E/B,/) (E/B,/)(E/B,/)(E/B,/)!p! (E/!<(!=D/)(E/D/)(E/D/)!<)! | %5
 (E/D/)(E/D/)(E/D/) (E/C/)(E/C/)(E/C/) (E/D/)(E/D/)(E/D/) | %6
 (E/D/)(E/D/)(E/D/)"_sostenuto" (E/=C/)(E/C/)(E/C/)!<(! (=F/C/)(F/C/)(F/C/) | %7
 (=F/D/)(F/D/)(F/D/)!<)! (F/D/)(F/D/)!>(!(F/D/) (F/D/)(F/D/)(F/D/)!>)! | %8
 (E/^C/)(E/C/)(E/C/)!<(! (E/C/)(E/C/)(E/C/)!<)! (E/D/)(E/D/)(E/B,/) | %9
 (E/^A,/)(E/A,/)(E/A,/) (E/B,/)(E/B,/)(E/B,/) (E/D/)(E/D/)(E/B,/) | %10
 (E/^A,/)(E/A,/)(E/A,/) (E/A,/)(E/A,/)(E/A,/) (E/B,/)(E/=A,/)(E/B,/) | %11
!p! (E/^B,/)(E/B,/)(E/B,/) (E/C/)(E/C/)(E/C/) (E/D/)(E/D/)(E/D/) | %12
"_cresc." (E/D/)(E/D/)(E/D/) (E/C/)(E/C/)(E/C/) (E/C/)(E/C/)(E/C/) | %13
 (E/B,/)(E/B,/)(E/B,/) (E/B,/)(E/B,/)(E/B,/)!>(! (E/B,/)(E/B,/)(^D/B,/)!>)! | %14
 (E/B,/)(E/B,/)(E/B,/) (E/B,/)(E/B,/)(E/B,/) (E/!<(!D/)(E/D/)(E/D/)!<)! | %15
 (E/D/)(E/D/)(E/D/) (E/C/)(E/C/)(E/C/)!<(! (E/D/)(E/D/)(E/D/)!<)! | %16
 (E/D/)(E/D/)(E/D/)"_sostenuto" (E/=C/)(E/C/)(E/C/)!<(! (=F/C/)(F/C/)(F/C/) | %17
 (=F/D/)(F/D/)(F/D/)!<)! (F/D/)(F/D/)(F/D/)!>(! (F/D/)(F/D/)(F/D/)!>)! | %18
 (E/^C/)(E/C/)(E/C/)!<(! (E/C/)(E/C/)(E/C/)!<)! (E/D/)(E/D/)(E/B,/) | %19
 (E/^A,/)(E/A,/)(E/A,/) (E/B,/)(E/B,/)(E/B,/) (E/D/)(E/D/)(E/B,/) | %20
 (E/_B,/)!>(!(E/B,/)(E/B,/) (E/B,/)(E/B,/)(E/B,/)!>)!!p! (E/B,/)(E/B,/)(E/B,/) || %21
[K:F]!p! z (B,E GEB, ECB,) | z (B,C FCA, CA,F,) | z (B,E GEB, ECB,) | z (B,C FCA,)!f! [fa]2 [e^g] | %25
 [fa]2 [cf] [Ac]3 [FA]3 | [EG]3- [EG]2 z!f! [fa]2 [e^g] | [fa]2 [cf] [Ac]3 A3 | %28
!>(! [EG]3-!>)! [EG]2 z [Ge]2 [^F^d] |!>(! [Ge]2 [Ec]!>)! [EG]3 [A,E]3 | %30
!>(! [^G,E]6-!>)! [G,E] z z || %31
[K:A] (e/!>(!^d/)(e/d/)(e/d/) (e/d/)(e/d/)(e/d/)!>)!!mf! (e/=d/)(e/d/)(e/d/) | %32
 (e/d/)(e/d/)(e/d/) (e/c/)(e/c/)(e/c/) (e/d/)(e/d/)(e/d/) | %33
 (e/d/)(e/d/)(e/d/)!<(! (e/c/)(e/c/)(e/c/) (e/G/)(e/G/)(e/G/)!<)! | %34
 (e/G/)(e/G/)(e/G/) (e/=G/)(e/G/)(e/G/)!>(! (e/F/)(e/F/)(^d/F/)!>)! | %35
 (e/E/)(e/E/)(e/E/) (^d/E/)(d/E/)(d/E/)!<(! (=d/E/)(d/F/)(d/!<)!G/) | %36
 (d/A/)(d/A/)(d/A/) (c/A/)(c/A/)(c/A/)!<(! (f/G/)(f/A/)(f/B/)!<)! | %37
 (f/^B/)(f/B/)(f/B/) (e/c/)(e/c/)(e/c/)!<(! (^e/=G/)(e/G/)(e/G/)!<)! | %38
 (f/F/)(f/F/)(f/F/) (f/F/)(f/F/)(f/F/) (d/F/)(d/F/)(d/F/) | %39
 (c/G/)(c/G/)(c/G/) (c/G/)(c/G/)(c/G/) (B/G/)(B/G/)(B/G/) | %40
!mp! (A/!>(!E/)(A/E/)(A/!>)!!p!E/)"_dim." (C/G,/)(C/G,/)(C/G,/) (C/G,/)(C/G,/)(C/G,/) | x3 x3 x3 | %42
 x3 x3 x!pp! z z |] %43
V:5
 z2 z z2 z (E,F,).G, | !>!A,3- A, z z (E,F,).G, | !>!A,3- A, z z [C,G,]3 | (G,3 =G,3 F,3) | %4
 ^G,3 z2 z (E,F,).G, | A,3- A, z z (E,F,).G, | A,3- A, z z ([=F,A,]3 | %7
 [D,A,]3 [_B,,_B,]3 [D,A,]3) | ([E,-A,]3 [E,^A,]3) (B,2 G,) | (^^F,3 G,3) (B,2 G,) | %10
 [E,^^F,]3- [E,F,]2 z (G,^F,).G, | A,3- A, z z (E,F,).G, | A,3- A, z z [C,G,]3 | (G,3 =G,3 F,3) | %14
 ^G,3 z2 z!p! (E,F,).G, | !>!A,3- A, z z (E,F,).G, | !>!A,3- A, z z ([=F,A,]3 | %17
 [D,A,]3 [_B,,_B,]3 [D,A,]3) | (A,3 ^A,3) (B,2 G,) | (^^F,3 G,3) (B,2 G,) | [E,=G,]6 [D,G,]3 || %21
[K:F] [C,G,]6- [C,G,]3 | [C,F,]6- [C,F,]3 | [C,G,]6- [C,G,]3 | [F,,F,]3- [F,,F,]2 z [FA]2 [E^G] | %25
 [FA]2 [CF] [A,C]3 [F,A,]3 | ([C,G,]3 C2) z z2 z | z2 z z2 z C2 =B, | (C2 G, E,2 C,) z2 z | %29
 z2 z!p! (C,2!>(! =B,, C,2!>)! A,,) |!pp! [E,,=B,,]6- [E,,B,,] z z ||[K:A] z2 z z2 z (E,F,).G, | %32
 A,3- A, z z (E,F,).G, | A,3- A,3 [C,E,]3 | (!>![B,,-B,]6 [B,,A,]3) | [E,G,]3 z2 z (G,A,).B, | %36
 (!>!^B,3 C2) z (=B,C).D | (!>!^D3 E2) z!f! [A,C]3 | ([A,D]3 ^A,3 B,3) | (!>![E,-E]6 [E,D]3) | %40
 [A,C]2 z !>![E,,D,]6 | %41
 (A,/E,/)(A,/E,/)(A,/E,/) (A,/E,/)(A,/E,/)(A,/E,/)!>(! (A,/E,/)(A,/E,/)(A,/E,/) | %42
 A,6- A,!>)! z z |] %43
V:6
 x9 | x9 | x9 | B,,6- B,,3 | E,3 x6 | x9 | x9 | x9 | x6 E,3 | E,6 E,3 | x9 | x9 | x9 | B,,6- B,,3 | %14
 E,3 x6 | x9 | x9 | x9 | E,6 E,3 | E,6 E,3 | x9 ||[K:F] x9 | x9 | x9 | x9 | x9 | x9 | x9 | x9 | %29
 x9 | x9 ||[K:A] x9 | x9 | x9 | x9 | x6 E,3 | E,6 E,3 | A,6 A,3 | D,6- D,3 | x9 | x9 | %41
 [A,,C,]2 z z2 z [A,,C,]2 z | [A,,C,]6- [A,,C,] x2 |] %43
V:7
 x9 | x9 | x9 | x9 | x9 | x9 | x9 | x9 | x9 | x9 | x9 | x9 | x9 | x9 | x9 | x9 | x9 | x9 | x9 | %19
 x9 | x9 ||[K:F] x9 | x9 | x9 | x9 | x9 | x9 | x3 F2 E F2 D | x9 | x9 | x9 ||[K:A] x9 | x9 | x9 | %34
 x9 | x9 | x9 | x9 | x9 | x9 | x9 | x9 | x9 |] %43

